packages/foundations/assets/icons/functional/images/file/folder_open_12_filled.svg

<svg width="12" height="12" viewBox="0 0 12 12" fill="none" xmlns="http://www.w3.org/2000/svg">
<g clip-path="url(#clip0_2208_3409)">
<path fill-rule="evenodd" clip-rule="evenodd" d="M5.44592 2.40002C5.63917 2.40002 5.7954 2.50628 5.86508 2.58384L6.55456 3.30002H8.99956C9.63218 3.30002 10.2029 3.8064 10.1996 4.50002V5.40002C10.5545 5.40002 10.8678 5.72907 10.7876 6.11769L10.2844 8.63536C10.1784 9.16511 9.70962 9.60003 9.10768 9.60003H2.89144C2.3535 9.60003 1.84098 9.23341 1.71474 8.63536L1.21121 6.11769C1.1416 5.76962 1.39792 5.40002 1.79956 5.40002V3.60002C1.79956 2.96741 2.30015 2.40002 2.99936 2.40002H5.44592ZM5.17816 3.60002H2.99956L2.99936 5.40002H8.99936L8.99956 4.50002H6.29956C6.1599 4.50002 5.99956 4.45231 5.86737 4.31621L5.17816 3.60002Z" fill="#1A1C1F"/>
</g>
<defs>
<clipPath id="clip0_2208_3409">
<rect width="12" height="12" fill="white"/>
</clipPath>
</defs>
</svg>

<svg xmlns="http://www.w3.org/2000/svg" width="12" height="12" fill="none"><g clip-path="url(#a)"><path fill="#1A1C1F" fill-rule="evenodd" d="M5.446 2.4c.193 0 .35.106.42.184l.689.716H9c.632 0 1.203.506 1.2 1.2v.9c.355 0 .668.33.588.718l-.504 2.517c-.106.53-.574.965-1.176.965H2.89c-.538 0-1.05-.367-1.176-.965L1.21 6.118A.6.6 0 0 1 1.8 5.4V3.6c0-.633.5-1.2 1.2-1.2zm-.268 1.2H3v1.8h6v-.9H6.3c-.14 0-.3-.048-.433-.184z" clip-rule="evenodd"/></g><defs><clipPath id="a"><path fill="#fff" d="M0 0h12v12H0z"/></clipPath></defs></svg>
